X:85
T:Cres D'Ober Plo Rencountrat
M:6/8
L:1/8
N:Assez anime
N:La Bourre 4th edition 1929, page 83
Z:Steve Mansfield www.lesession.co.uk June 2012
K:Am
E | A2 c (Bc) d | e2 B A3 | 
e ^f e d B c | (d2 e/^f/) !fermata! e2 e | e d c B e ^f | 
e d c B2 c/ B/ | A3 A B c | (d2 c) !fermata! B3 | 
E2 A B2 e | e2 c B c d | e ^f e (d{B}cB) | !fermata! A6 |] 

